src/icons/svgs/16/comment.svg

<svg width="16" height="16" viewBox="0 0 16 16" fill="none" xmlns="http://www.w3.org/2000/svg">
<path d="M7.98841 2C4.11517 2 1.00068 4.49445 1.00068 7.5718C1.00068 8.901 1.58551 10.1161 2.56121 11.0729C2.21881 12.4222 1.07464 13.625 1.06095 13.6384C0.999315 13.6986 0.982195 13.792 1.01986 13.8723C1.05407 13.9527 1.13 14 1.21903 14C3.03376 14 4.37186 13.1492 5.07036 12.6234C5.96416 12.9515 6.96096 13.1428 8.01227 13.1428C11.8855 13.1428 15 10.6481 15 7.59511C15 4.54213 11.8617 2 7.98841 2ZM4.45757 8.429C3.97136 8.429 3.58102 8.04728 3.58102 7.59591C3.58102 7.14454 3.97136 6.73871 4.45757 6.73871C4.94378 6.73871 5.33412 7.12043 5.33412 7.59591C5.33412 8.07139 4.96706 8.429 4.45757 8.429ZM7.98841 8.429C7.5022 8.429 7.13652 8.04728 7.13652 7.59591C7.13652 7.14454 7.52686 6.73871 7.98841 6.73871C8.44997 6.73871 8.84031 7.12043 8.84031 7.59591C8.84031 8.07139 8.47599 8.429 7.98841 8.429ZM11.47 8.429C10.9837 8.429 10.5934 8.04728 10.5934 7.59591C10.5934 7.14454 10.9837 6.73871 11.47 6.73871C11.9562 6.73871 12.3465 7.12043 12.3465 7.59591C12.3465 8.07139 11.9794 8.429 11.47 8.429Z" fill="black"/>
</svg>

<svg width="16" height="16" viewBox="0 0 16 16" xmlns="http://www.w3.org/2000/svg">
    <path d="M7.988 2C4.115 2 1.001 4.494 1.001 7.572c0 1.329.585 2.544 1.56 3.5-.342 1.35-1.486 2.553-1.5 2.566a.205.205 0 0 0-.041.234.21.21 0 0 0 .199.128c1.815 0 3.153-.85 3.851-1.377a8.53 8.53 0 0 0 2.942.52c3.873 0 6.988-2.495 6.988-5.548S11.862 2 7.988 2zm-3.53 6.429c-.487 0-.877-.382-.877-.833a.88.88 0 0 1 .877-.857c.486 0 .876.381.876.857 0 .475-.367.833-.876.833zm3.53 0a.838.838 0 0 1-.851-.833c0-.451.39-.857.851-.857.462 0 .852.381.852.857 0 .475-.364.833-.852.833zm3.482 0c-.486 0-.877-.382-.877-.833a.88.88 0 0 1 .877-.857c.486 0 .877.381.877.857 0 .475-.368.833-.877.833z"/>
</svg>
